X:1
T:Мистический Хоръ
T:Цезарь А. Кюи, 1910
T:Psalm 22 (western numbering)
T:Псалом 21
T:Александру Андреевичу Архангельскому Три Псалмов, Opus 80, No. 2
T:Public Domain
T:Public Domain
T:Public Domain
T:Public Domain
C:Цезарь Антонович Кюи
Z:Public Domain
%%score [ ( 1 2 ) ( 3 4 ) ( 5 6 ) 7 ]
L:1/8
Q:1/4=72
M:4/4
K:F
V:1 treble nm="Сопрани" snm="С."
V:2 treble 
V:3 treble nm="Альты" snm="А."
V:4 treble 
V:5 treble nm="Тенора" snm="Т."
V:6 treble 
V:7 bass nm="Басы" snm="Б."
V:1
"^Бо    –      же,   Бо –же  мой,  вон – ми         ми,                  вску–ю  ос–та  –  вил       мя           е  –   си;""^Andante"!p! A3 A AAAA | %1
 A4 ^G4 | A2 Ad c2 B2 | A3 ^G G3"^да –" G | %4
"^– ле – че    от   спа–се –ни – я   мо – е  –   го        сло–ве    –    ся    гре–хо–па–де –  ний   мо – их." AA!<(!de"^О                                            Бо   –   же,                                                       вон     –          –       ми. __________" ff/f/ de!<)! | %5
!mf! f4 d2 B2 | AA!<(!de f2 de!<)! |!f!!>(! f8-!>)! |!pp! f6 z2 | %9
 z4 z"^На     Тя ____    у – по – ва –ша          от  – цы __   на  –  ши,  от–цы _____  на–ши ______               У –  по –"!p! E (^F^G) | %10
 A2 GF F2 E2 | z E!<(! ^GA =B2 Be!<)! | (d3 c) =B2 B2- |[M:2/4] B z!mf! [^G_B][GB] | %14
[M:4/4]"^–ва–ша,  у–по–ва–ша  и     из  – ба       –        –      вил            е   –  си                          и               из    –   ба        –      вил  е   –  си." [Ac]2 [Ac]4 [Ac][Ac] | %15
 [A^c]2 [Ac]4 [Ac][Ac] | %16
"^из  –  ба   –   вил    е – си,           из  –  ба – вил  е  –  си,             из – ба–вил е–си                я." d=B^cd!<(! e3 e!<)! | %17
 fdef g3 g | c2 cc c4 |!f! c8 | %20
"^Аз    же  есмь  червь,               а   не  че – ло – век,                                                по       –       но      –     ше           –           нье"!p! A4 A2 A2 | %21
 (A4 ^G4) | A2 d2 c2 B2 | (A4 ^G4) | %24
"^по  –  но  – ше–ни–е   че –ло – ве      –        –        –     ков" A2!<(! de ff/f/ de!<)! | %25
!mf! f6 d2 | %26
"^и        у – ни–чи–же–ни– е      лю  –  дей.                                                      Ты  же  Гос–по–ди, ______" AA!<(!de"^че     –     ло      –       ве       –        –        –       ков.            Ты                              же                  не   у– да– ли ______" ffde!<)! | %27
!f! (f6 B2) |!mf! g2 g2 f_e e2- | e_eee (d2 c2) | %30
"^по–мощь Тво–ю   от   ме  –  не.                                                                             вон      –      ми,                   вон         –          ми."!>(! c2 cc B2 _AA!>)! | %31
 G8 | z8 | z4!p! (d2!<(! e2)!<)! | f8 |!>(! (f4 e4)!>)! |!ppp! a8 |] %37
V:2
 x8 | x8 | x8 | x4 x2 x z | z4 A4 | B4 B3 z | z4 A4 | =B8- | B6 x2 | x8 | x8 | x8 | x8 | %13
[M:2/4] x4 |[M:4/4] x8 | x8 | A4 A3 A | A4 =B3 B | c4 c2 c2 | x8 | x8 | x8 | x8 | x8 | z4 A2 A2 | %25
 =B4 B3 z | z4 A2 A2 | _A6 B2 | B6 _e2- | e x x2 x4 | x8 | x8 | x8 | x4 B4 | A8 | B8 | d8 |] %37
V:3
"^Бо    –      же,   Бо –же  мой,  вон – ми         ми,                  вску–ю  ос–та  –  вил       мя           е  –   си;                да –"!p! A,3 A, A,A,A,A, | %1
 A,4 ^G,4 | A,2 A,D C2 B,2 | A,3 ^G, G,3 G, | %4
"^– ле–че    от    спа–се – ни–я   мо – е   –  го         сло–ве     –    ся   гре –хо–па–де – ний  мо  –  их. __________" A,A,DE FF/F/ DE | %5
!p! F4 D2 B,2 | A,A,!<(!DE F2 DE!<)! |!f!!>(! F8-!>)! |!pp! F6 z2 | %9
 z4"^На  Тя                        у – по – ва      –     ша,                          у      –    по   –   ва      –      ша. __________"!p! =B, E3 | %10
 E2 _E2 D4 | E4 E2 E2 | (E2 ^F2) ^G4- |[M:2/4] G z z2 | %14
[M:4/4] z4 z2"^У – по–ва–ша  и    из  –  ба      –        –     вил             е   –  си                           и              из  –  ба         –       вил   е  –  си."!mf! EE | %15
 E2 E4 EE | D4!<(! E3 E!<)! | F4 D3 D | F4 C2 C2 |!f! C8 | %20
"^Аз    же  есмь  червь,               а   не  че – ло – век,"!p! A,4 A,2 A,2 | (A,4 ^G,4) | %22
 A,2 D2 C2 B,2 | (A,4 ^G,4) | %24
"^по–" A,2"^но   – ше–ни–е   че – ло –  ве       –        –        –    ков"!<(! DE FF/F/ DE!<)! | %25
!mf! D6 D2 |"^и        у – ни–чи–же–ни– е    лю –  дей." A,A,!<(!DE FFDE!<)! |!f! D8 | %28
"^Ты   же   не     у – да  –  ли"!mf! _E2 E2 FG G2 | _A8 | %30
"^по       –       мощь  Тво    –     ю,                       на       за–ступ–ле  –  ни – е      мо   –   е                      вон        –          ми."!>(! D4 D2 D2!>)! | %31
 _E8 |!p! G4 G2 F2 | E3 E F2!<(! F2!<)! | F8 |!>(! (F4 E4)!>)! |!ppp! A8 |] %37
V:4
 x8 | x8 | x8 | x8 | x8 | x8 | x8 | x8 | x8 | x8 | x8 | x8 | x8 |[M:2/4] x4 |[M:4/4] x8 | x8 | x8 | %17
 x8 | x8 | x8 | x8 | x8 | x8 | x8 | x8 | x8 | x8 | x8 | x8 | x8 | x8 | x8 | x8 | x8 | x8 | D8 | %36
 D8 |] %37
V:5
 z4"^О                                        Бо    –   же,                                                вон       –         ми                     ми,"!p! [Fd]4 | %1
 [Fd]4 [Ed]3 z | z4 [Fd]4 | [Fd]4 [Ed]3 z | %4
 z4"^О                                           Бо  –   же,                                                        вон            –              ми. __________" [Ad]4 | %5
!p! [Bd]4 [Bd]3 z | z4!<(! [Ad]4!<)! |!f!!>(! [^Gd]8-!>)! |!pp! [Gd]6 z2 | %9
 z2"^На      Тя                                  у – по– ва – ша,                                    у     –     по    –   ва      –      ша. __________               У – по –"!p! ^GA =B4 | %10
 A2 A2 ^G2 G2 | z4!<(! ^GE ^FG!<)! | (A2 c2) e4- |[M:2/4] e z!mf! ee | %14
[M:4/4]"^–ва–ша,  у–по–ва–ша  и     из  – ба       –        –        –        –        –   вил,                      из           –            ба         –       вил  е   –  си." [Ae]2 [Ae]4 [Ae][Ae] | %15
 [Ae]2 [Ae]4 [Ae]"^из  –  ба             –          вил       е     –     си,"[Ae] | %16
 d4!<(! ^cA Bc!<)! | d4"^и          из    –    ба– вил  е – си ____    я." fd fg | a2 ff (d2 e2) | %19
!f! f8 | %20
 z4"^Аз _________     же                            есмь         червь,                                         по        –       но       –     ше      –        –    нье"!p! [Fd]4- | %21
 [Fd]4 [Fd]3 z | z4 [Fd]4 | (([Fd]4 [Ed]3)) z | z4"^червь" d4 |"^е    не че–ло–век," ffde f3 z | %26
 z4"^че     –    ло        –      ве        –        –        –        ков.         По    –        –        –        –    мощь""^червь" d4 | %27
"^е    не   че–ло–век." ffdc B4 | %28
"^Ты                             же         не              у –да–ли ____"!mf! B6 B2 | %29
 c2 cc (d2 _e2) | %30
"^по       –        –        –        –        мощь""^не                      у   –   да      –      ли,                     на       за–ступ–ле  –  ни – е      мо   –   е                      вон        –          ми."!>(! f8!>)! | %31
 _e8 |!p! [A^c]4 [Ad]2 [Ad]2 | [Bd]3 [Bd] [Bd]2!<(! [Bd]2!<)! | [Fd]8 |!>(! B8!>)! |!ppp! A8 |] %37
V:6
 x8 | x8 | x8 | x8 | x8 | x8 | x8 | x8 | x8 | x8 | x8 | x8 | x8 |[M:2/4] x4 |[M:4/4] x8 | x8 | A8 | %17
 A4 G4 | A4 F2 G2 | A8 | x8 | x8 | x8 | x8 | x4 F2 F2 | ^G4 G3 x | x4 A2 A2 | (B3 A B2) _A2 | G8 | %29
 _A8 | _A4 B2 _c2 | B8 | x8 | x8 | x8 | (F4 G4) | F8 |] %37
V:7
 z4"^О                                        Бо    –   же,                                                вон       –         ми                     ми,"!p! D,4 | %1
 B,,4 B,,3 z | z4 D,4 | B,,4 B,,3 z | %4
 z4"^О                                           Бо  –   же,                                                        вон            –              ми. __________            На"!<(! [A,,F,]4!<)! | %5
 [G,,F,]4 [G,,F,]3 z | z4!<(! [F,,D,]4!<)! |!f!!>(! [E,,D,]8-!>)! |!pp! [E,,D,]6!p! D,2 | %9
"^________________________________________\nPsalm 21\nThree Psalms\n, No. 2\nTo Aleksandr Andreevich Arkhangel'skii\nBy César A. Cui, 1910""^Тя                    у      –        –     по – ва        –         ша." E,4 E,3 D, | %10
 (C,4 =B,,2) E,2 | z8 | z8 |[M:2/4] z4 | %14
[M:4/4] z4 z2"^У – по–ва–ша  и    из –  ба      –        –      вил,    из    –     ба           –          вил        е      –     си                                          я."!mf! A,A, | %15
 G,2 G,4 G,G, | F,4!<(! E,2 E,2!<)! | (D,2 C,2) =B,,2 B,,2 | C,8 |!f! [F,,C,]8 | %20
 z4"^Аз _________     же                            есмь         червь,                                         по        –       но       –     ше      –        –    нье"!p! (([D,,A,,]4 | %21
 [B,,,B,,]4)) [B,,,B,,]3 z | z4 [D,,A,,]4 | [B,,,B,,]4- [B,,,B,,]3 z | %24
 z4!<(! [B,,,B,,]2 [B,,,B,,]2!<)! |!mf! [E,,=B,,]4 [E,,B,,]3 z | %26
 z4"^че     –    ло        –      ве        –        –        –        ков.         По   –        –        –        –   мощь"!<(! [F,,D,]2 [F,,D,]2!<)! | %27
!f! [F,,D,]6 B,,2 |!mf! _E,8 | _E,8 | %30
"^не                      у   –   да      –      ли,                     на       за–ступ–ле  –  ни – е      мо   –   е                      вон        –          ми."!>(! _E,4 E,2 E,2!>)! | %31
 _E,8 |!p! E,4 F,2 F,2 | G,3 G, ^G,2!<(! G,2!<)! | [A,,A,]8 |!>(! [G,,D,]8!>)! |!ppp! [D,,A,,]8 |] %37

